icons/webpack.svg

<svg aria-labelledby="simpleicons-webpack-icon" role="img" viewBox="0 0 24 24" xmlns="http://www.w3.org/2000/svg"><title id="simpleicons-wbpack-icon">Webpack icon</title><path d="M21.0157246,18.1201941 L12.3509798,23 L12.3509798,19.1993225 L17.7496069,16.242552 L21.0157246,18.1201941 Z M21.6084337,17.5857882 L21.6084337,7.3804944 L18.437647,9.20242616 L18.437647,15.7617932 L21.6084337,17.5857882 L21.6084337,17.5857882 Z M2.92566056,18.1201941 L11.5904054,23 L11.5904054,19.1993225 L6.1917782,16.242552 L2.92566058,18.1201941 L2.92566056,18.1201941 Z M2.33295138,17.5857882 L2.33295138,7.3804944 L5.50373819,9.20242616 L5.50373819,15.7617932 L2.3329514,17.5857882 L2.33295138,17.5857882 Z M2.70391271,6.72022466 L11.5904054,1.71455484 L11.5904054,5.38936853 L5.89749604,8.50707959 L5.85397543,8.53183971 L2.70391272,6.72022467 L2.70391271,6.72022466 Z M21.2374724,6.72022466 L12.3509798,1.71455483 L12.3509798,5.38936853 L18.0438892,8.5070796 L18.0874098,8.53183972 L21.2374724,6.72022469 L21.2374724,6.72022466 Z M11.5904054,18.3347817 L6.26431255,15.4192782 L6.26431255,9.64191821 L11.5904054,12.7039191 L11.5904054,18.3347817 L11.5904054,18.3347817 Z M12.3509798,18.3347817 L17.6770726,15.4192782 L17.6770726,9.64191821 L12.3509798,12.7039191 L12.3509798,18.3347817 L12.3509798,18.3347817 Z M6.62491183,8.9733951 L11.9717288,6.04551155 L17.3185457,8.9733951 L11.9717288,12.047776 L6.62491183,8.9733951 L6.62491183,8.9733951 Z"/></svg>

<svg aria-labelledby="simpleicons-webpack-icon" role="img" viewBox="0 0 24 24" xmlns="http://www.w3.org/2000/svg"><title id="simpleicons-webpack-icon">Webpack icon</title><path d="M21.0157 18.1202L12.351 23v-3.8007l5.3986-2.9567 3.266 1.8776zm.5927-.5344V7.3805l-3.1708 1.822v6.5593l3.1708 1.824zm-18.6827.5344L11.5904 23v-3.8007l-5.3986-2.9567-3.266 1.8776zm-.5927-.5344V7.3805l3.1707 1.822v6.5593l-3.1707 1.824zm.371-10.8656l8.8864-5.0056v3.6748L5.8974 8.507l-.0434.0248-3.15-1.8116zm18.5335 0L12.351 1.7146v3.6748l5.693 3.1177.0434.0248 3.15-1.8116zm-9.647 11.6146l-5.3262-2.9155V9.642l5.326 3.062v5.6308zm.7605 0l5.326-2.9155V9.642l-5.326 3.062v5.6308zM6.625 8.9734l5.3467-2.928 5.3468 2.928-5.3468 3.0744L6.625 8.9734z"/></svg>
